!!!OTL: Adam und Eva (256), S. 549
!!!id: T0446
**kern
*clefG2
*k[]
*C:
{8g
=1
8cc
8cc
16cc
16cc
=2
8cc
8b
8a
=3
8a
8g
8g
=4
8g}
8r
=5
{8g
=6
8a
16a
16a
16a
16a
=7
8cc
8b
8a
=8
8g
8g
8g
=9
8e}
8r
=10
{16g
16g
=11
8ff
8ff
8ff
=12
8ff}
8r
=13
{16dd
16dd
=14
8ee
8ee
8ee
=15
8ee}
8r
=16
{8cc
=17
8dd
16dd
16dd
16dd
16dd
=18
8ff
8b
8b
=19
8dd
8cc
8cc
=20
8cc}
8r
==
*-
!!!minrhy: 16
!!!meters: 3/8 ]  ZZ[5
!!!cut: Adam und Eva (256), S. 549
!!!reg: Luxemburg
!!!trd: Singendes Volk, Esch-Alzette, 1937 posth.
!!!rhy1: X_  X_X_XX  X_X_X_  X_X_X_  X_0_
!!!rhy2: X_  X_XXXX  X_X_X_  X_X_X_  X_0_
!!!key: T0446  16  C 3/8 ]  ZZ[5
!!!mod: HEPTATONIK IONISCH]  AMBITUS[9b
!!!kad: 53+4+3+1
!!!akz: +1+165_6+153_+4+4_+3+3_+2+4+2+1_
!!!fot: 'a__b__as"as"as"
!!!for: 'a__b__c__c__b__
!!!fok: '^__^d_/__/__^__
!! PHRAS[AUFTAKTIG]
!!!fkt: Scherz-, Spiel-, Spottlied
!!!bem: Reuland, hhh Franz Petry, 1908
!! THILL; Mathias
!! PR[57] 2K[2] 2G[7] 3K[5] 3G[2] 4A[2] 4Ü[0] 5A[2] 6K[0] 6G[0]
!! 7K[0] 7G[0] 8A[0] MEHR[0] SI[20] ABS[44] SR[9] SP[11]
!! ST[13] 2k[5] 2g[14] 3k[5] 3g[0] 4d[0] 4ü[0] 5d[0] 6k[0] 6g[0]
!! 7k[0] 7g[0] 8d[0] mehr[0] si[23] dm[-3] sr[18] sp[5]
!! 1F[91] 2F[6] 3F[0] 4F[0] LF[0] 2P[2] 3P[0] 4P[0] TRI[0] DF[3] AB[47]
!! TF[0] U3K[0] U3[0] U4[0] U4Ü[0] U5[7] U6K[0] U6[7] U7K[0] U7[4]
!! N1[11] N2K[0] N2[2] N3K[0] N3[27] N4[16] N4Ü[0] N5[24] N6K[0] N6[2]
!!!n7k: 0] N7[0] O1[0] O2K[0] O2[0] O3K[0] O3[0] HÖ[0
